!!!OTL:
!!!ONR: No. 20
!! From Madeleine Beland,
!! "Chansons de Voyageurs, Coureurs de Bois et Forestiers"
!! Quebec: Les Presses de l'universite/ Laval, 1982
!! ISBN 2-7637-6942-X
**kern
*clefG2
*k[f#]
*M2/4
16d
8d
qd
8g
=
8g
16g
16g
8g
8f#
=
4e
8e
8a
=
8a
8g
8b
8a
=
8g
16f#
16e
8d
qd
8g
=
8g
16g
16g
8g
8f#
=
8e
8r
8e
8a
=
8a
8g
8b
8a
=
8g
8r
qg
8b
8b
=
8b
16.a
32a
8a
8a
*M3/8
=
8.a
16g
16.g
32g
*M2/4
=
8.g
16a
8g
8e
=
8d
16r
16d
8d
8g
=
8g
16g
16g
qg
8f#
8g
=
8.a
16g
8a
8cc
=
8b
16g
16g
8a
8f#
=
4g
4r
==
*-
